X:1
T:Title
L:1/8
M:6/8
K:F
V:1 treble nm="Grand Piano"
V:1
 z3[Q:1/4=140] A,2 A, | D6 | E3 F2 F | E2 E D2 D | ^C6- | C3 A,2 A, | ^C6- | C2 ^C D2 D | D3 z3 | %9
 z3 A,2 A, | D6 | E3 F2 F | E2 E D2 D | ^C6- | C3 A,2 A, | ^C6- | C2 ^C D2 D | D3 z3 | z3 G2 A | %19
 B2 A B2 A | B2 d c2 B | A6- | A3 F2 G | A2 _A =A2 _A | A2 c B2 A | G6- | G3 E2 F | G2 ^F G2 F | %28
 G2 A G2 E | F6- | F3 D2 E | F2 F F2 E | F2 G F2 E | E6- | E3 ^C2 D | E2 E F2 E | D3 A2 B | %37
 A2 G F2 E | D3 z3 |] %39

